X: 33398
T: Quickstep
R: jig
M: 6/8
K: Gmajor
|:DGG BGG|defg2e|dBG dBG|FAA AcB|
DGG BGG|defg2e|dge cBA|1 G3G3:|2 G3G2d||
|:ece ege|dBGg2d|dBG dBG|FAA ABd|
[1ece ege|dBGg2d|AdcB2A|G3G2d:|
[2DGG BGG|defg2e|dge cBA|G3G3||

